X:1
T:Lets Face The Music - Jeff Goldblum
T:Lets Face The Music - Jeff Goldblum
L:1/8
Q:1/4=119
M:4/4
K:Eb
V:1 bass transpose=-12 nm="Acoustic Bass" snm="Bass"
V:1
|:"^Intro" F,,2 z F, z C, z A,, | G,, z C,4 z2 | F,,2 z F, z C, z A,, | G,, z =E,,4 z2 :| %4
"^Vs 1" F,,2 z F, z C, z A,, | G,, z C,4 z2 | G,,2 z G, z F, z =B,, | C, z =E,,4 z2 | %8
 F,,2 z F, z C, z A,, | G,, z C,4 z2 | G,,2 z G, z F, z =B,, | C, z =E,,4 z2 | %12
 F,,2 z =A, z F,C,=B,,- | B,,4 z4 | B,,2 z B, z F, z =E, | [E,B,]4 [=E,=B,]4 | %16
 F,,2 z F, z C, z A,, | G,, z =E,,4 z2 ||"^Vs 2" F,,2 z F, z C, z A,, | G,, z C,4 z2 | %20
 G,,2 z G, z F, z =B,, | C, z =E,,4 z2 | F,,2 z F, z C, z A,, | G,, z C,4 z2 | D,2 z D z C z =A, | %25
 G, z =B,,4 z2 | C,2 z B, z G, z D, | E, z =E,,4 z2 | F,,2 z =A, z F,C,=B,,- | B,,4 z4 | %30
 B,,2 z B, z F, z =E, | [E,B,]4 [=E,=B,]4 ||[K:Db]"^Lead into ......." F,4 =E,4 | %33
 E,2 B,2 A,2 C,2 ||"^Change 1" D,2 D,2 =D,2 D,2 | E,2 B,2 A,2 G,2 | F,2 A,A, (3B,F,=D, B,,2 | %37
 E,2 B,2 A,2 C,2 | D,A, D2 C2 =B,2 | B,2 A,2 F,2 C,2 | G,2 A,2 B,2 C2 | D2 D,6 || %42
[K:Eb]"^Vs 3" F,,2 z F, z C, z A,, | G,, z C,4 z2 | G,,2 z G, z F, z =B,, | C, z =E,,4 z2 | %46
 F,,2 z F, z C, z A,, | G,, z C,4 z2 | G,,2 z G, z F, z =B,, | C, z =E,,4 z2 | %50
 F,,2 z =A, z F,C,=B,,- | B,,4 z4 | B,,2 z B, z F, z =E, | [B,,E,]4 [=B,,=E,]4 || %54
"^Lead into...." F,4 G,3 F, | A,2 G,2 F,2 C,F, ||"^Solo" F,,2 A,,2 B,,2 =B,,2 | F,2 A,2 F,A, F,2 | %58
 G,2 A,,2 B,,2 =B,,2 | C,2 F,2 A2 =E2 | (3FCA, F,2 C2 =E2 | F2 =E2 F2 C2 | G2 B,2 =B,2 C2 | %63
 C,2 E,2 A,2 =E,2 | F,2 =A,2 E,2 D,2 | C,2 C,2 F,2 A,2 | B,2 F,2 =A,B, D,2 | E,2 B,2 F,B, =E,2 | %68
 F,2 F,2 D,2 A,2 | G,2 D,2 C,2 =E,2 | F,2 C,2 A,B, =E,2 | F,2 C,2 F,2 =A,2 | %72
 (3B,G,F, B,2 B,,2 =B,,2 | C,2 =E,2 F,2 _E,2 | F,2 C2 A2 =E2 | (3FCA, F,2 F2 E2 | D2 E2 D2 =A,2 | %77
 G,2 D,2 C,2 =E,2 | F,2 C,2 G,2 E,2 | C,2 D,2 E,2 =E,2 | F,2 =A,2 D,2 _D,2 | C,2 G,2 F,G, =A,2 | %82
 B,2 D,2 F,2 B,2 | E,2 B,2 E,B, =E,2 ||[K:Db]"^Lead into........" F,2 F,2 =E,2 E,2 | %85
 E,2 B,2 E,A, =B,,2 ||"^Change 2" D,2 D,2 =D,2 D,2 | E,2 B,2 A,A, G,2 | F,2 A,2 (3B,F,D, B,,2 | %89
 .F,B,F, z .A,A, C,2 | .D,D.FF .EE .C2 | (3DA,F, D, z A,2 D2 | A,2 =A,2 B,2 =B,2 | CC C,2 F,2 z2 || %94
[K:Eb]"^Vs 4" F,,2 F,,2 A,,2 C,2 | G,,2 B,,2 C,C, F,,2 | A,,2 B,,2 C,C F,2 | C,2 E,2 A,2 E,2 | %98
 F,2 A,2 G,2 =E,2 | F,2 A,2 CA, =E,2 | F,2 C,2 C,B,, C,2 | C,C, F,,2 A,2 =E,2 | F,2 F,2 E,2 E,2 | %103
 C,2 C,2 F,F, B,2 | =B,2 F,2 B,2 F,2 | E,2 E,2 =B,2 E,2 | D,2 D,2 C,2 C,2 | =B,,2 B,,2 _B,,2 B,2 | %108
 =A,2 A,2 D,2 A,2 | G,2 G,2 C,2 C,2 | E,2 E,2 D,2 B,2 | G,2 G,2 G,2 G,2 | =A,2 =E,2 D,2 A,2 | %113
 G,2 =A,2 B,2 =B,2 | C2 C,4 !fermata!z2 ||"^Outro" F,,2 z F, z C, z A,, | G,, z C,4 z2 | %117
 F,,2 z F, z C, z A,, | G,, z =E,,4 z2 | F,,2 z F, z C, z A,, | G,, z C,4 z2 | %121
 F,,2 z F, z C, z G,, | F,,2 z4 z2 |] %123

